verbNet/artwork/semantics.svg

<?xml version="1.0" encoding="UTF-8" standalone="no"?>
<svg
   xmlns:dc="http://purl.org/dc/elements/1.1/"
   xmlns:cc="http://creativecommons.org/ns#"
   xmlns:rdf="http://www.w3.org/1999/02/22-rdf-syntax-ns#"
   xmlns:svg="http://www.w3.org/2000/svg"
   xmlns="http://www.w3.org/2000/svg"
   xmlns:sodipodi="http://sodipodi.sourceforge.net/DTD/sodipodi-0.dtd"
   xmlns:inkscape="http://www.inkscape.org/namespaces/inkscape"
   width="200px"
   height="200px"
   viewBox="0 0 200 200"
   version="1.1"
   id="svg2"
   inkscape:version="0.91 r13725"
   sodipodi:docname="semantics.svg">
  <metadata
     id="metadata12">
    <rdf:RDF>
      <cc:Work
         rdf:about="">
        <dc:format>image/svg+xml</dc:format>
        <dc:type
           rdf:resource="http://purl.org/dc/dcmitype/StillImage" />
      </cc:Work>
    </rdf:RDF>
  </metadata>
  <sodipodi:namedview
     pagecolor="#ffffff"
     bordercolor="#666666"
     borderopacity="1"
     objecttolerance="10"
     gridtolerance="10"
     guidetolerance="10"
     inkscape:pageopacity="0"
     inkscape:pageshadow="2"
     inkscape:window-width="1871"
     inkscape:window-height="1176"
     id="namedview10"
     showgrid="false"
     inkscape:zoom="1.18"
     inkscape:cx="96.194838"
     inkscape:cy="-181.52074"
     inkscape:window-x="49"
     inkscape:window-y="24"
     inkscape:window-maximized="1"
     inkscape:current-layer="svg2" />
  <title
     id="title4">Pinboard</title>
  <description>Created with Sketch (http://www.bohemiancoding.com/sketch)</description>
  <defs
     id="defs6" />
  <path
     style="fill:#808080;fill-opacity:1;stroke-width:0.2;stroke-linejoin:round"
     inkscape:connector-curvature="0"
     d="M 56.654705,47.147314 41.002444,31.691168 28.82701,44.029803 44.479217,59.477292 M 33.073516,96.317513 7.0776246,96.481397 7.1868808,113.81199 33.182772,113.64811 m 43.555371,36.03446 0.262761,41.68007 51.991786,-0.32777 -0.26276,-41.68007 c 15.46284,-9.09242 25.83359,-25.90848 25.71237,-45.13678 C 154.26126,75.501226 130.83088,52.373017 102.12275,52.554 73.405958,52.735037 50.277694,76.156763 50.458732,104.87356 c 0.121219,19.2283 10.694497,35.91232 26.279411,44.80901 z m 95.089377,-36.90851 25.99589,-0.16388 -0.10925,-17.330601 -25.99589,0.163885 M 110.51763,9.6061533 C 107.77929,9.6061014 93.187044,9.7154095 93.187044,9.7154095 L 93.348197,35.27804 110.67879,35.168783 m 64.61773,7.937641 -12.33003,-12.184147 -15.45615,15.652261 12.32998,12.175489 15.4562,-15.643603 z"
     id="path6993" />
</svg>

<svg xmlns="http://www.w3.org/2000/svg" width="200" height="200"><path d="M56.655 47.147 41.002 31.691 28.827 44.03l15.652 15.447m-11.405 36.84-25.996.164.109 17.331 25.996-.164m43.555 36.035.263 41.68 51.992-.328-.263-41.68c15.463-9.093 25.834-25.909 25.712-45.137-.18-28.717-23.611-51.845-52.32-51.664-28.716.181-51.844 23.603-51.663 52.32.121 19.228 10.694 35.912 26.28 44.809zm95.09-36.909 25.995-.164-.109-17.33-25.996.163m-61.2-85.837c-2.739 0-17.331.11-17.331.11l.161 25.562 17.33-.11m64.619 7.938-12.33-12.184-15.457 15.653 12.33 12.175 15.457-15.644z" style="fill:gray;fill-opacity:1;stroke-width:.2;stroke-linejoin:round"/></svg>
